X:1
T:Je ne fais rien
T:Je ne fais rien
T:Clement Janequin
T:Source : Trium vocum cantiones---Nürnberg---J.Petreius---1541. Editor : André Vierendeels (08/10/16). 
T:Notes : Original clefs : C3, C3, F4 Editorial accidentals above the staff Original note values have been halved
T:©
T:©
T:©
C:Clement Janequin
Z:©
%%score [ 1 2 3 ]
L:1/8
Q:1/4=120
M:2/2
K:F
V:1 treble-8 nm="Tenor 1" snm="T 1"
V:2 treble-8 nm="Tenor 2" snm="T 2"
V:3 bass nm="Bass" snm="B"
V:1
 z8 | z2 F2 F2 F2 | B2 B2 A2 A2 | F2 c2 d2 f2- | f2 e2 f2 d2- | d2 cB c4 | F2 B2 B2 B2 | %7
w: |Je ne fais|rien que re- que-|rir sans ac- que-|||rir le don d'a-|
 AGAB c2 d2 | e2 fe dc B2- | BA F2 G4 | F2 c2 A2 A2 | c3 B/A/ G4 | F4 z2 B2- | B2 A2 BcdB | %14
w: mou- * * * reu- se|ly- es- * * * *||e, las, ma mais-|tres- * * *|se, dic-|* tes quant _ _ _|
 c2 d4 c2 | BAGF G4 | F2 A2 A2 G2 | B2 c2 A2 c2 | d4 e4 | f8 | z2 F2 B2 A2 | G2 A3 G c2- | %22
w: _ es- *|* * * * se,|qu'il vous plai- ra|me se- cou- *||rir,|je ne fais|rien que re- que|
 c2 B2 c2 f2 | e2 c2 d4 | c8 | B2 F2 B2 A2 | G2 A3 G c2- | c2 B2 c2 f2 | e2 c2 d4 | c8 |] %30
w: _ rir sans ac-||que|rir, je ne fais|rien que re- que-|* rir sans ac-|* * que-|rir.|
V:2
 z4 c4 | c2 c2 f4 | d4 c2 c2- | cBAG F4 | z2 c2 d2 f2- | f2 ed e4 | d4 d2 d2 | cBcd e2 f2 | %8
w: Je|ne fais rien|que re- que-|* * * * rir|sans ac- que-|* * rir _|le don d'a-|mou- * * * reu- se|
 g2 a2 f2 g2- | g2 f4 e2 | f4 c4 | A2 A2 c3 B | A2 GF G4 | F4 f4 | e2 f2 g2 a2 | gf f4 e2 | %16
w: [ly- es- * *||e] las,|ma mais- tres- *||se, dic-|tes quant _ _|_ _ es- *|
 f4 z2 c2 | d2 e2 f2 e2- |"^#" e2 d4 c2 | d4 z2 c2 | f4 defd | e4 z2 e2 | d2 d2 c2 d2- | %23
w: se, qu'il|vous plai- ra me|_ se- cou-|rir, le|ne fais _ _ _|rien que|re- que- * rir|
"^-natural" d2 c4 B2 | c4 z2 c2 | f4 defd | e4 z2 e2 | d2 d2 c2 d2- |"^-natural" d2 c4 B2 | c8 |] %30
w: sans ac- que-|rir, je|ne fais _ _ _|rien que|re- que- rir sans|_ ac- que-|rir.|
V:3
 C,4 C,2 C,2 | F,2 F,2 D,2 D,2 | B,,4 z2 F,,2 | F,,2 F,,2 B,,2 D,2 | C,2 C,2 B,,4 | %5
w: Je ne fais|rien que re- que-|rir sans|ac- que- rir le|don d'a- mou-|
 A,,4 A,,2 A,,2 | B,,2 G,,2 B,,C,D,E, | F,2 F,2 E,2 D,2 | C,2 F,,2 B,,2 G,,2 | D,4 C,4 | F,,8 | %11
w: reu- se ly-|es- * * * * *|se, d'a- mou- reu-|se ly- es- *||se,|
 z2 F,2 E,2 C,2 | D,2 F,4 E,2 | F,4 B,,4 | z2 B,,4 A,,2 | B,,2 D,2 C,4 | F,,2 F,2 F,2 E,2 | %17
w: las, ma mais-|tres- * *|* se,|dic- tes|quant es- *|se, qu'il vous plai-|
 D,2 C,2 D,2 A,,2 | B,,4 A,,4 | z2 D,2 F,4 | D,4 B,,2 F,,2 | C,4 A,,4 | F,,2 G,,2 A,,2 B,,2- | %23
w: ra me se- *|cou- rir,|je ne|fais rien que|re- que-|rir sans ac- *|
 B,,2 C,2 G,,4 | z2 C,2 F,4 | D,4 B,,2 F,,2 | C,4 A,,4 | F,,2 G,,2 A,,2 B,,2- | B,,2 C,2 G,,4 | %29
w: * que- rir,|je ne|fais rien que|re- que-|rir sans ac- *|* * que-|
 C,8 |] %30
w: rir.|

